X:088
T: La Jolie Flamande. EHo.088
A:England; East Yorkshire
M:2/4
L:1/8
Q:1/4=100
B:Edward Holmes MS, c1846, Beverley, Yorkshire.
O:
Z:Village Music Project 2018, Jake Wade. Beverley, East Yorks
K:A
a2b/a/g/b/ | aedc | fdcB | AA/B/ AE |  a2b/a/g/b/ | aedc |
f/d/c/d/ cB | A2A2 !fine! || B2d/c/B/d/ | caec | fdBA | GB/G/ E2 |
B2d/c/B/d/ | caec | f/d/c/d/ c/d/B/c/ | A2A,2 || [K:Am] Ac/d/ ec | Bd/e/ fd |
ce ^GB | AA/B/ AE | Ac/d/ ec/A/ | Bd/e/ f/d/B/^G/ | A/c/e E/^G/B/d/ | A2A,2 ||

